img/masks/exp-min-mask-2.svg

<svg width="30" height="28" viewBox="0 0 30 28" fill="none" xmlns="http://www.w3.org/2000/svg">
<path d="M0.0126793 18.6789C0.0126793 19.0789 0.112679 19.3789 0.112679 19.7789C0.512679 22.8789 2.01268 25.5789 5.11268 26.5789C10.9127 28.4789 18.1127 25.6789 23.4127 23.3789C27.7127 21.4789 30.3127 18.7789 29.7127 13.8789C28.6127 6.07886 21.0127 2.77886 14.3127 0.978864C11.3127 0.178864 6.41268 -1.12114 4.11268 1.87886C2.51268 3.87886 1.91268 7.47886 1.21268 9.87886C0.412679 12.6789 -0.0873207 15.6789 0.0126793 18.6789Z" fill="#298BE7"/>
</svg>

<svg width="30" height="28" fill="none" xmlns="http://www.w3.org/2000/svg"><path d="M.013 18.679c0 .4.1.7.1 1.1.4 3.1 1.9 5.8 5 6.8 5.8 1.9 13-.9 18.3-3.2 4.3-1.9 6.9-4.6 6.3-9.5-1.1-7.8-8.7-11.1-15.4-12.9-3-.8-7.9-2.1-10.2.9-1.6 2-2.2 5.6-2.9 8-.8 2.8-1.3 5.8-1.2 8.8z" fill="#298BE7"/></svg>
